packages/sources/icons/src/vitamix/home-line.svg

<svg width="16" height="16" viewBox="0 0 16 16" fill="none" xmlns="http://www.w3.org/2000/svg">
<path fill-rule="evenodd" clip-rule="evenodd" d="M2.66667 13.7656C2.66667 14.1338 2.96514 14.4322 3.33333 14.4322H12.6667C13.0349 14.4322 13.3333 14.1338 13.3333 13.7656V7.76557H15.3333L8.44867 1.5069C8.19432 1.27547 7.80568 1.27547 7.55133 1.5069L0.666666 7.76557H2.66667V13.7656ZM12 6.53691V13.0989H4V6.53691L8 2.90091L12 6.53691Z" fill="#001018"/>
</svg>

<svg width="16" height="16" fill="none" xmlns="http://www.w3.org/2000/svg"><path fill-rule="evenodd" clip-rule="evenodd" d="M2.667 13.766c0 .368.298.666.666.666h9.334a.667.667 0 0 0 .666-.666v-6h2L8.45 1.506a.667.667 0 0 0-.898 0L.667 7.767h2v6zM12 6.536V13.1H4V6.537L8 2.9l4 3.636z" fill="#001018"/></svg>
